communes/4030.svg

<?xml version="1.0" encoding="UTF-8"?>
<!DOCTYPE svg  PUBLIC '-//W3C//DTD SVG 1.1//EN'  'http://www.w3.org/Graphics/SVG/1.1/DTD/svg11.dtd'>
<svg width="520" height="585" version="1.1" viewBox="0 0 100 112.5" xmlns="http://www.w3.org/2000/svg">
<title>Wappen von Killwangen</title>
<desc>Wappen der Schweizer Gemeinde Killwangen, Kanton Aargau</desc>
<defs>
<clipPath id="a">
<path d="m2 2h96v60.5a48 48 0 0 1-96 0z"/>
</clipPath>
</defs>
<g fill="#fff" stroke="#000">
<path d="m1 1h98v61.5a49 49 0 0 1-98 0z" fill="#f00000" stroke-width="2"/>
<path d="m0 72.1 50-69 50 69v29l-50-69-50 69" clip-path="url(#a)"/>
<path d="m45.2 70.2 4.8-11.7 4.8 11.7 12.6-1.7-7.8 10 7.8 10-12.6-1.7-4.8 11.7-4.8-11.7-12.6 1.7 7.8-10-7.8-10z"/>
</g>
</svg>

<?xml version="1.0" encoding="utf-8" standalone="no"?>
<!DOCTYPE svg PUBLIC "-//W3C//DTD SVG 1.1//EN" "http://www.w3.org/Graphics/SVG/1.1/DTD/svg11.dtd">
<svg version="1.1"
   xmlns="http://www.w3.org/2000/svg"
   width="520" height="585" viewBox="0,0 100,112.5">
  <title>Wappen von Killwangen</title>
  <desc>Wappen der Schweizer Gemeinde Killwangen, Kanton Aargau</desc>
  <defs>
    <clipPath id="cpSchild"> <path d="M 2,2 H 98 V 62.5 A 48,48 0 0,1 2,62.5 z" /> </clipPath>
  </defs>
  <g stroke="black" stroke-width="1" fill="white">
    <path d="M 1,1 H 99 V 62.5 A 49,49 0 0,1 1,62.5 z" stroke-width="2" fill="#f00000" />
    <path d="M 0,72.1 L 50,3.1 100,72.1 v 29 L 50,32.1 0,101.1" clip-path="url(#cpSchild)" />
    <path d="M 45.2,70.2 l 4.8,-11.7 4.8,11.7 12.6,-1.7 -7.8,10 7.8,10 -12.6,-1.7 -4.8,11.7 -4.8,-11.7 -12.6,1.7 7.8,-10 -7.8,-10 z" />
  </g>
</svg>
